src/assets/media/image/youtube--white.svg

<svg width="24" height="24" viewBox="0 0 24 24"  xmlns="http://www.w3.org/2000/svg">
<path style="fill: #fff" fill-rule="evenodd" clip-rule="evenodd" d="M9.52161 15.1351L9.52061 8.34418L16.0043 11.7522L9.52061 15.1351H9.52161ZM23.759 7.16789C23.759 7.16789 23.525 5.50213 22.8041 4.76896C21.8921 3.80616 20.8691 3.80113 20.4002 3.74473C17.0413 3.5 12.0045 3.5 12.0045 3.5H11.9935C11.9935 3.5 6.95671 3.5 3.59785 3.74473C3.12887 3.80113 2.10691 3.80515 1.19395 4.76896C0.47398 5.50314 0.23999 7.16789 0.23999 7.16789C0.23999 7.16789 0 9.1237 0 11.0795V12.9134C0 14.8693 0.23999 16.8261 0.23999 16.8261C0.23999 16.8261 0.47398 18.4908 1.19395 19.226C2.10691 20.1888 3.30586 20.1576 3.83984 20.2573C5.75976 20.4436 11.9995 20.5 11.9995 20.5C11.9995 20.5 17.0423 20.4919 20.4011 20.2482C20.8711 20.1918 21.8931 20.1878 22.805 19.225C23.526 18.4898 23.76 16.8251 23.76 16.8251C23.76 16.8251 24 14.8693 24 12.9124V11.0785C24 9.12269 23.76 7.16688 23.76 7.16688L23.759 7.16789Z" />
</svg>

<svg xmlns="http://www.w3.org/2000/svg" width="24" height="24"><path fill-rule="evenodd" d="m9.522 15.135-.001-6.79 6.483 3.407zm14.237-7.967s-.234-1.666-.955-2.399c-.912-.963-1.935-.968-2.404-1.024-3.36-.245-8.396-.245-8.396-.245h-.012s-5.036 0-8.395.245c-.47.056-1.491.06-2.404 1.024C.474 5.503.24 7.168.24 7.168S0 9.124 0 11.079v1.834c0 1.956.24 3.913.24 3.913s.234 1.665.954 2.4c.913.963 2.112.932 2.646 1.031 1.92.187 8.16.243 8.16.243s5.042-.008 8.401-.252c.47-.056 1.492-.06 2.404-1.023.721-.735.955-2.4.955-2.4s.24-1.956.24-3.913v-1.834c0-1.955-.24-3.911-.24-3.911z" clip-rule="evenodd" style="fill:#fff"/></svg>
